public/sponsors/formula-100.svg

<?xml version="1.0" encoding="UTF-8"?>
<svg xmlns="http://www.w3.org/2000/svg" xmlns:xlink="http://www.w3.org/1999/xlink" viewBox="448.9 96.2 253.4 428.3">
<path fill-rule="nonzero" fill="#ffffff" fill-opacity="1" d="M 490.554688 414.773438 L 463.105469 414.773438 L 459.1875 433.070312 L 469.550781 433.070312 C 471.582031 433.070312 472.980469 433.574219 473.832031 434.609375 C 475.175781 436.246094 474.808594 438.726562 474.195312 441.796875 L 458.894531 513.625 L 482.902344 513.625 L 501.164062 428.191406 C 502.050781 423.742188 501.558594 420.335938 499.707031 418.074219 C 497.910156 415.882812 494.832031 414.773438 490.554688 414.773438 "/>
<path fill-rule="nonzero" fill="#ffffff" fill-opacity="1" d="M 568.761719 452.023438 L 563.585938 476.046875 C 560.347656 491.484375 555.261719 496.195312 541.828125 496.195312 C 531.402344 496.195312 526.953125 492.691406 526.953125 484.484375 C 526.953125 482.183594 527.292969 479.628906 528.117188 475.664062 L 533.300781 451.632812 C 536.320312 437.292969 542.015625 432.207031 555.0625 432.207031 C 565.625 432.207031 569.933594 435.433594 569.933594 443.339844 C 569.933594 445.570312 569.550781 448.410156 568.761719 452.023438 M 557.792969 413.910156 C 526.011719 413.910156 516.402344 418.601562 509.355469 451.589844 L 504.03125 476.332031 C 502.882812 481.648438 502.328125 486.148438 502.328125 490.089844 C 502.328125 507.648438 512.59375 514.488281 538.949219 514.488281 C 570.695312 514.488281 580.335938 509.691406 587.679688 475.941406 L 593 451.203125 C 594.035156 446.675781 594.558594 442.246094 594.558594 438.019531 C 594.558594 420.671875 584.25 413.910156 557.792969 413.910156 "/>
<path fill-rule="nonzero" fill="#ffffff" fill-opacity="1" d="M 665.253906 452.023438 L 660.074219 476.046875 C 656.835938 491.484375 651.75 496.195312 638.316406 496.195312 C 627.890625 496.195312 623.441406 492.691406 623.441406 484.484375 C 623.441406 482.214844 623.777344 479.660156 624.605469 475.664062 L 629.789062 451.632812 C 632.808594 437.292969 638.503906 432.207031 651.546875 432.207031 C 662.113281 432.207031 666.425781 435.433594 666.425781 443.339844 C 666.425781 445.570312 666.042969 448.410156 665.253906 452.023438 M 654.28125 413.910156 C 622.5 413.910156 612.890625 418.601562 605.84375 451.589844 L 600.519531 476.332031 C 599.375 481.632812 598.816406 486.132812 598.816406 490.089844 C 598.816406 507.648438 609.085938 514.488281 635.4375 514.488281 C 667.183594 514.488281 676.820312 509.691406 684.167969 475.941406 L 689.488281 451.203125 C 690.527344 446.652344 691.050781 442.21875 691.050781 438.019531 C 691.050781 420.671875 680.742188 413.910156 654.28125 413.910156 "/>
<path fill-rule="nonzero" fill="#ffffff" fill-opacity="1" d="M 517.835938 383.777344 C 517.835938 385.0625 517.652344 386.519531 517.265625 388.226562 C 515.714844 395.546875 513.175781 397.898438 506.816406 397.898438 C 501.839844 397.898438 499.898438 396.421875 499.898438 392.636719 C 499.898438 391.367188 500.085938 389.894531 500.472656 388.140625 C 502.042969 380.734375 504.472656 378.472656 510.875 378.472656 C 515.886719 378.472656 517.835938 379.960938 517.835938 383.777344 M 492.863281 387.351562 C 492.359375 389.757812 492.257812 391.441406 492.257812 393.378906 C 492.257812 400.652344 496.234375 403.617188 505.988281 403.617188 C 518.023438 403.617188 522.199219 401.605469 524.871094 389.015625 C 525.378906 386.617188 525.480469 384.929688 525.480469 382.992188 C 525.480469 375.71875 521.503906 372.753906 511.75 372.753906 C 499.71875 372.753906 495.546875 374.765625 492.863281 387.351562 "/>
<path fill-rule="nonzero" fill="#ffffff" fill-opacity="1" d="M 550.078125 393.273438 C 555.21875 393.273438 558.058594 390.203125 559.007812 383.617188 C 559.128906 382.667969 559.222656 381.367188 559.222656 380.589844 C 559.222656 375.480469 557.039062 373.101562 552.347656 373.101562 L 536.894531 373.101562 C 533.71875 373.101562 532.144531 374.421875 531.453125 377.664062 L 526.023438 403.167969 L 526 403.265625 L 533.460938 403.265625 L 538.183594 381.03125 C 538.558594 379.402344 539.261719 378.824219 540.867188 378.824219 L 548.15625 378.824219 C 550.589844 378.824219 551.582031 379.5625 551.582031 381.375 C 551.582031 381.851562 551.511719 382.429688 551.359375 383.242188 C 550.722656 386.21875 549.742188 387.945312 546.628906 387.945312 L 544.054688 387.945312 C 541.25 387.945312 539.546875 388.367188 539.136719 390.535156 L 539.070312 390.894531 C 539.011719 391.1875 538.964844 391.417969 538.964844 391.589844 C 538.964844 392.824219 540.027344 394.316406 540.804688 395.40625 L 546.351562 403.234375 L 546.378906 403.265625 L 555.089844 403.265625 L 547.640625 393.734375 L 547.734375 393.273438 Z M 550.078125 393.273438 "/>
<path fill-rule="nonzero" fill="#ffffff" fill-opacity="1" d="M 604.417969 376.09375 C 604.417969 373.941406 602.457031 372.753906 598.894531 372.753906 C 595.449219 372.753906 593.046875 374.152344 591.335938 377.152344 L 581.339844 394.785156 C 580.9375 395.53125 580.570312 396.152344 580.125 396.152344 C 579.601562 396.152344 579.414062 395.332031 579.320312 394.71875 L 576.699219 377.082031 C 576.25 374.085938 574.523438 372.753906 571.085938 372.753906 C 568.492188 372.753906 565.226562 373.542969 564.425781 377.3125 L 558.910156 403.164062 L 558.886719 403.269531 L 566.34375 403.269531 L 570.589844 382.253906 C 570.730469 381.542969 571.039062 381.136719 571.4375 381.136719 C 571.863281 381.136719 571.964844 381.746094 572.066406 382.332031 L 574.597656 399.902344 C 574.941406 402.203125 575.320312 403.617188 578.726562 403.617188 C 582.078125 403.617188 583.140625 402.1875 584.496094 399.828125 L 594.492188 382.28125 C 594.964844 381.449219 595.25 381.136719 595.53125 381.136719 C 595.761719 381.136719 596.035156 381.324219 596.035156 381.855469 C 596.035156 381.988281 596.035156 382.140625 595.984375 382.339844 L 591.304688 403.164062 L 591.28125 403.269531 L 598.738281 403.269531 L 604.289062 377.234375 C 604.375 376.855469 604.417969 376.472656 604.417969 376.09375 "/>
<path fill-rule="nonzero" fill="#ffffff" fill-opacity="1" d="M 616.488281 373.203125 L 616.511719 373.101562 L 609.054688 373.101562 L 605.027344 391.851562 C 604.824219 392.867188 604.726562 393.769531 604.726562 394.601562 C 604.726562 400.417969 609.136719 403.617188 617.148438 403.617188 C 625.847656 403.617188 630.96875 401.730469 633.109375 391.765625 L 637.09375 373.203125 L 637.117188 373.101562 L 629.65625 373.101562 L 625.71875 391.457031 C 624.796875 395.851562 622.296875 397.898438 617.847656 397.898438 C 614.132812 397.898438 612.324219 396.476562 612.324219 393.554688 C 612.324219 392.910156 612.417969 392.15625 612.589844 391.375 Z M 616.488281 373.203125 "/>
<path fill-rule="nonzero" fill="#ffffff" fill-opacity="1" d="M 643.585938 396.128906 C 643.585938 395.917969 643.621094 395.652344 643.660156 395.363281 L 648.363281 373.203125 L 648.382812 373.101562 L 640.925781 373.101562 L 635.460938 398.835938 C 635.378906 399.246094 635.335938 399.671875 635.335938 400.058594 C 635.335938 402.097656 636.628906 403.269531 638.890625 403.269531 L 655.136719 403.269531 L 658.699219 397.550781 L 645.484375 397.550781 C 644.34375 397.550781 643.585938 397.308594 643.585938 396.128906 "/>
<path fill-rule="nonzero" fill="#ffffff" fill-opacity="1" d="M 675.484375 387.632812 L 680.84375 378.621094 L 682.519531 388.503906 C 683.019531 391.199219 681.558594 392.902344 680.523438 393.34375 C 679.179688 393.914062 677.179688 393.878906 676.0625 393.265625 C 675.378906 392.890625 674.90625 392.292969 674.699219 391.546875 C 674.386719 390.433594 674.667969 389.042969 675.484375 387.632812 M 666.390625 403.253906 L 670.203125 396.777344 C 671.070312 398.09375 672.714844 399.003906 674.972656 399.414062 C 676.71875 399.734375 678.238281 399.648438 678.253906 399.644531 C 680.730469 399.433594 682.339844 398.953125 684.140625 397.890625 L 685.230469 403.253906 L 692.339844 403.253906 L 686.753906 376.164062 C 686.167969 373.3125 684.390625 372.738281 681.707031 372.738281 C 678.007812 372.738281 676.582031 373.914062 675.105469 376.230469 L 658.210938 403.253906 Z M 666.390625 403.253906 "/>
<path fill-rule="nonzero" fill="#ffffff" fill-opacity="1" d="M 475.835938 391.449219 C 475.945312 390.925781 476.414062 390.546875 476.945312 390.546875 L 482.890625 390.546875 C 484.484375 390.546875 485.945312 389.742188 486.789062 388.390625 L 489.265625 384.445312 L 471.652344 384.445312 C 470.59375 384.445312 469.667969 385.195312 469.449219 386.230469 L 465.886719 403.167969 L 465.867188 403.265625 L 473.324219 403.265625 Z M 475.835938 391.449219 "/>
<path fill-rule="nonzero" fill="#ffffff" fill-opacity="1" d="M 493.789062 377.230469 L 496.378906 373.101562 L 476.734375 373.101562 C 473.5625 373.101562 471.988281 374.421875 471.292969 377.664062 L 470.96875 379.386719 L 489.890625 379.386719 C 491.484375 379.386719 492.945312 378.582031 493.789062 377.230469 "/>
<path fill-rule="nonzero" fill="#ffffff" fill-opacity="1" d="M 513.8125 345.375 L 637.351562 345.375 C 644.136719 345.375 650.390625 341.972656 654.082031 336.277344 C 657.769531 330.582031 658.316406 323.484375 655.539062 317.289062 L 625.347656 249.925781 C 623.9375 246.78125 624.230469 243.183594 626.125 240.308594 L 640.421875 218.621094 C 643.949219 213.273438 645.503906 206.820312 644.808594 200.449219 L 641.761719 172.636719 L 599.71875 236.425781 C 597.136719 240.339844 596.742188 245.230469 598.65625 249.511719 L 628.082031 315.15625 C 628.683594 316.507812 628.570312 317.992188 627.765625 319.234375 C 626.964844 320.476562 625.652344 321.1875 624.175781 321.1875 L 529.660156 321.1875 C 528.058594 321.1875 526.648438 320.34375 525.890625 318.9375 C 525.132812 317.527344 525.207031 315.886719 526.085938 314.554688 L 633.140625 152.136719 C 636.667969 146.789062 638.222656 140.335938 637.527344 133.964844 L 634.480469 106.15625 L 497.171875 314.472656 C 493.070312 320.695312 492.730469 328.332031 496.265625 334.894531 C 499.800781 341.457031 506.359375 345.375 513.8125 345.375 "/>
</svg>

<svg xmlns="http://www.w3.org/2000/svg" viewBox="448.9 96.2 253.4 428.3"><path fill="#fff" d="M490.555 414.773h-27.45l-3.918 18.297h10.364c2.031 0 3.43.504 4.281 1.54 1.344 1.636.977 4.117.363 7.187l-15.3 71.828h24.007l18.262-85.434c.887-4.449.395-7.855-1.457-10.117-1.797-2.191-4.875-3.3-9.152-3.3m78.207 37.249-5.176 24.024c-3.238 15.437-8.324 20.148-21.758 20.148-10.426 0-14.875-3.504-14.875-11.71 0-2.301.34-4.856 1.164-8.82l5.184-24.032c3.02-14.34 8.715-19.426 21.761-19.426 10.563 0 14.872 3.227 14.872 11.133 0 2.23-.383 5.07-1.172 8.683m-10.969-38.113c-31.781 0-41.39 4.692-48.438 37.68l-5.324 24.742c-1.148 5.316-1.703 9.816-1.703 13.758 0 17.558 10.266 24.398 36.621 24.398 31.746 0 41.387-4.797 48.73-38.547L593 451.203c1.035-4.527 1.559-8.957 1.559-13.183 0-17.348-10.309-24.11-36.766-24.11m107.461 38.113-5.18 24.024c-3.238 15.437-8.324 20.148-21.758 20.148-10.425 0-14.875-3.504-14.875-11.71 0-2.27.336-4.825 1.164-8.82l5.184-24.032c3.02-14.34 8.715-19.426 21.758-19.426 10.566 0 14.879 3.227 14.879 11.133 0 2.23-.383 5.07-1.172 8.683M654.28 413.91c-31.781 0-41.39 4.692-48.437 37.68l-5.324 24.742c-1.145 5.3-1.704 9.8-1.704 13.758 0 17.558 10.27 24.398 36.621 24.398 31.747 0 41.383-4.797 48.731-38.547l5.32-24.738c1.04-4.55 1.563-8.984 1.563-13.183 0-17.348-10.309-24.11-36.77-24.11m-136.444-30.133c0 1.286-.184 2.743-.57 4.45-1.551 7.32-4.09 9.671-10.45 9.671-4.976 0-6.918-1.476-6.918-5.261 0-1.27.188-2.742.575-4.496 1.57-7.407 4-9.668 10.402-9.668 5.012 0 6.96 1.488 6.96 5.304m-24.972 3.575c-.504 2.406-.605 4.09-.605 6.027 0 7.273 3.976 10.238 13.73 10.238 12.035 0 16.211-2.012 18.883-14.601.508-2.399.61-4.086.61-6.024 0-7.273-3.977-10.238-13.731-10.238-12.031 0-16.203 2.012-18.887 14.598m57.215 5.921c5.14 0 7.98-3.07 8.93-9.656.12-.949.215-2.25.215-3.027 0-5.11-2.184-7.488-6.875-7.488h-15.453c-3.176 0-4.75 1.32-5.442 4.562l-5.43 25.504-.023.098h7.46l4.724-22.235c.375-1.629 1.078-2.207 2.683-2.207h7.29c2.433 0 3.425.738 3.425 2.551 0 .477-.07 1.055-.223 1.867-.636 2.977-1.617 4.703-4.73 4.703h-2.574c-2.805 0-4.508.422-4.918 2.59l-.067.36c-.058.293-.105.523-.105.695 0 1.234 1.062 2.726 1.84 3.816l5.547 7.828.027.032h8.71l-7.448-9.532.093-.46Zm54.34-17.179c0-2.153-1.961-3.34-5.523-3.34-3.446 0-5.848 1.398-7.56 4.398l-9.995 17.633c-.403.746-.77 1.367-1.215 1.367-.523 0-.71-.82-.805-1.433l-2.62-17.637c-.45-2.996-2.177-4.328-5.614-4.328-2.594 0-5.86.789-6.66 4.558l-5.516 25.852-.023.106h7.457l4.246-21.016c.14-.711.45-1.117.847-1.117.426 0 .528.61.63 1.195l2.53 17.57c.344 2.301.723 3.715 4.13 3.715 3.351 0 4.414-1.43 5.77-3.789l9.995-17.547c.473-.832.758-1.144 1.04-1.144.23 0 .503.187.503.718 0 .133 0 .286-.05.485l-4.68 20.824-.024.106h7.457l5.551-26.036a5.2 5.2 0 0 0 .129-1.14m12.07-2.891.024-.101h-7.457l-4.028 18.75c-.203 1.015-.3 1.918-.3 2.75 0 5.816 4.41 9.015 12.421 9.015 8.7 0 13.82-1.887 15.961-11.851l3.985-18.563.023-.101h-7.46l-3.938 18.355c-.922 4.395-3.422 6.441-7.871 6.441-3.715 0-5.524-1.421-5.524-4.343 0-.645.094-1.399.266-2.18Zm27.098 22.926c0-.211.035-.477.074-.766l4.703-22.16.02-.101h-7.457l-5.465 25.734a6.4 6.4 0 0 0-.125 1.223c0 2.039 1.293 3.21 3.555 3.21h16.246l3.562-5.718h-13.215c-1.14 0-1.898-.242-1.898-1.422m31.898-8.496 5.36-9.012 1.676 9.883c.5 2.695-.961 4.398-1.997 4.84-1.343.57-3.343.535-4.46-.078a2.77 2.77 0 0 1-1.364-1.72c-.312-1.112-.031-2.503.785-3.913m-9.093 15.62 3.812-6.476c.867 1.317 2.512 2.227 4.77 2.637 1.746.32 3.265.234 3.28.23 2.477-.21 4.087-.69 5.888-1.753l1.09 5.363h7.109l-5.586-27.09c-.586-2.851-2.363-3.426-5.047-3.426-3.7 0-5.125 1.176-6.602 3.492l-16.894 27.024ZM475.836 391.45a1.14 1.14 0 0 1 1.11-.903h5.945a4.57 4.57 0 0 0 3.898-2.156l2.477-3.946h-17.614a2.26 2.26 0 0 0-2.203 1.785l-3.562 16.938-.02.098h7.457Zm17.954-14.22 2.589-4.128h-19.645c-3.171 0-4.746 1.32-5.441 4.562l-.324 1.723h18.922a4.57 4.57 0 0 0 3.898-2.157m20.024-31.855h123.539a19.86 19.86 0 0 0 16.73-9.098 19.86 19.86 0 0 0 1.457-18.988l-30.191-67.363a9.98 9.98 0 0 1 .777-9.617l14.297-21.688a27.63 27.63 0 0 0 4.387-18.172l-3.047-27.812-42.043 63.789a13.58 13.58 0 0 0-1.063 13.086l29.426 65.644a4.22 4.22 0 0 1-.316 4.078 4.2 4.2 0 0 1-3.59 1.954H529.66a4.22 4.22 0 0 1-3.77-2.25 4.22 4.22 0 0 1 .196-4.383L633.14 152.137a27.63 27.63 0 0 0 4.386-18.172l-3.047-27.809-137.308 208.317c-4.102 6.222-4.442 13.859-.906 20.422 3.535 6.562 10.093 10.48 17.546 10.48"/></svg>
